Papirus/64x64/apps/redeclipse.svg

<?xml version="1.0" encoding="UTF-8" standalone="no"?>
<svg
   id="_图层_1"
   version="1.1"
   viewBox="0 0 64 64" width="64" height="64"
   sodipodi:docname="redeclipse.svg"
   xml:space="preserve"
   inkscape:version="1.4 (e7c3feb100, 2024-10-09)"
   xmlns:inkscape="http://www.inkscape.org/namespaces/inkscape"
   xmlns:sodipodi="http://sodipodi.sourceforge.net/DTD/sodipodi-0.dtd"
   xmlns="http://www.w3.org/2000/svg"
   xmlns:svg="http://www.w3.org/2000/svg"><sodipodi:namedview
     id="namedview26"
     pagecolor="#505050"
     bordercolor="#eeeeee"
     borderopacity="1"
     inkscape:showpageshadow="0"
     inkscape:pageopacity="0"
     inkscape:pagecheckerboard="0"
     inkscape:deskcolor="#505050"
     inkscape:zoom="10.6875"
     inkscape:cx="32"
     inkscape:cy="32"
     inkscape:window-width="1920"
     inkscape:window-height="939"
     inkscape:window-x="0"
     inkscape:window-y="34"
     inkscape:window-maximized="1"
     inkscape:current-layer="_图层_1" /><!-- Generator: Adobe Illustrator 29.0.1, SVG Export Plug-In . SVG Version: 2.1.0 Build 192)  --><defs
     id="defs6"><style
       id="style1">
      .st0 {
        fill-opacity: .5;
      }

      .st0, .st1, .st2, .st3, .st4, .st5, .st6, .st7 {
        fill: #fff;
      }

      .st8 {
        fill: #133c9a;
      }

      .st2, .st9 {
        display: none;
      }

      .st3 {
        fill-opacity: .2;
      }

      .st4 {
        fill-opacity: .9;
      }

      .st10 {
        fill: #3370ff;
      }

      .st11 {
        fill: url(#_未命名的渐变_3);
      }

      .st12 {
        fill: url(#_未命名的渐变);
      }

      .st5 {
        fill-opacity: .3;
      }

      .st6 {
        fill-opacity: 0;
      }

      .st7 {
        fill-opacity: .7;
      }

      .st13 {
        fill: #00d6b9;
      }

      .st14 {
        fill: url(#_未命名的渐变_2);
      }
    </style><radialGradient
       id="_未命名的渐变"
       data-name="未命名的渐变"
       cx="123.9"
       cy="-40.2"
       fx="123.9"
       fy="-40.2"
       r="59.4"
       gradientTransform="translate(-26.8 25.5) scale(.6 -.7)"
       gradientUnits="userSpaceOnUse"><stop
         offset="0"
         stop-color="#db202e"
         id="stop1" /><stop
         offset="1"
         stop-color="#e01b24"
         id="stop2" /></radialGradient><radialGradient
       id="_未命名的渐变_2"
       data-name="未命名的渐变 2"
       cx="67.6"
       cy="26.8"
       fx="67.6"
       fy="26.8"
       r="105.2"
       gradientTransform="translate(-26.6 25.3) scale(.6 -.7)"
       gradientUnits="userSpaceOnUse"><stop
         offset="0"
         stop-color="#ffb648"
         id="stop3" /><stop
         offset="1"
         stop-color="#ff7800"
         stop-opacity="0"
         id="stop4" /></radialGradient><radialGradient
       id="_未命名的渐变_3"
       data-name="未命名的渐变 3"
       cx="61.7"
       cy="18.6"
       fx="61.7"
       fy="18.6"
       r="68"
       gradientTransform="translate(-26.8 25.8) scale(.6 -.7)"
       gradientUnits="userSpaceOnUse"><stop
         offset="0"
         stop-color="#c64600"
         id="stop5" /><stop
         offset="1"
         stop-color="#a51d2d"
         id="stop6" /></radialGradient></defs><path
     class="st1"
     d="M47.5,64.1H13.8c-7.6,0-13.8-6.3-13.8-13.8V13.7C0,6.2,6.2,0,13.7,0h36.6c7.5,0,13.7,6.2,13.7,13.7v36.6c0,7.5-6.2,13.7-13.7,13.7h-2.9.1Z"
     id="path6" /><g
     id="g27"
     transform="matrix(0.90309057,0,0,0.8616644,4.2246834,5.2839807)"><path
       style="opacity:0.2"
       d="M 4.000432,23.491846 C 5.7740117,19.485551 9.9773709,21.665851 11.495644,19.212417 12.932691,16.890241 8.1574756,13.2797 5.2092227,13.44054 c 1.0453384,-0.997203 7.7809593,0.222273 9.8743483,0.283778 2.540916,0.07465 -1.414803,-4.9379139 -1.414803,-4.9379139 0.929551,-1.8298319 5.793533,-0.6551406 7.721793,1.8944029 2.19231,2.898674 5.506135,-4.8479175 3.519583,-6.1722855 4.126797,0.1945935 4.731971,6.2837555 6.855644,6.4853445 3.483417,0.330663 4.185226,-1.375493 4.817412,-3.5149321 2.457037,2.4299881 0.506926,5.5959621 1.765376,5.7740031 4.119245,2.301291 7.140136,-3.976346 9.406905,-1.904217 -3.371605,2.290396 -6.419424,8.913539 -1.488579,8.934259 2.405657,0.145558 3.003028,0.513586 5.817472,2.848938 -6.40532,-2.209606 -6.517917,3.160233 -3.578852,2.547947 6.129317,-1.276904 7.638872,3.789788 6.96161,3.92524 -1.812636,-0.906319 -11.762491,-1.291148 -10.860436,0.2705 4.635282,8.02467 -4.349877,11.397213 -11.876016,13.292792 L 17.066722,43.277435 C 14.201381,41.551165 4.421238,36.508867 4.000432,29.166357 3.94223,28.150808 7.449032,29.394697 8.1860656,28.240685 10.187632,25.106731 7.9214748,23.448677 4.000432,23.491846 Z"
       id="path1" /><path
       style="fill:#ff3c3c"
       d="m 4.000432,22.491872 c 1.7735797,-4.006295 5.9769389,-1.825995 7.495212,-4.279429 1.437047,-2.322176 -3.3381684,-5.932717 -6.2864213,-5.771878 1.0453384,-0.997202 7.7809593,0.222274 9.8743483,0.283779 2.540916,0.07465 -1.414803,-4.9379143 -1.414803,-4.9379143 0.929551,-1.8298319 5.793533,-0.6551406 7.721793,1.8944034 2.19231,2.8986729 5.506135,-4.847918 3.519583,-6.172286 4.126797,0.1945935 4.731971,6.2837556 6.855644,6.4853448 3.483417,0.3306621 4.185226,-1.3754932 4.817412,-3.5149324 2.457037,2.4299881 0.506926,5.5959625 1.765376,5.7740025 4.119245,2.301291 7.140136,-3.9763455 9.406905,-1.904217 -3.371605,2.290396 -6.419424,8.91354 -1.488579,8.93426 2.405657,0.145554 3.003028,0.513585 5.817472,2.848937 -6.40532,-2.209605 -6.517917,3.160234 -3.578852,2.547948 6.129317,-1.276904 7.638872,3.789787 6.96161,3.925239 C 53.654496,27.698811 43.704641,27.313982 44.606696,28.87563 49.241978,36.900299 40.256819,40.272842 32.73068,42.168422 L 17.066722,42.27746 C 14.201381,40.551191 4.421238,35.508893 4.000432,28.166383 3.94223,27.150834 7.449032,28.394722 8.1860656,27.240711 10.187632,24.106757 7.9214748,22.448702 4.000432,22.491872 Z"
       id="path2" /><path
       style="opacity:0.2;fill:#ffffff"
       d="m 24.910156,3.5078125 c 0.319958,0.2133051 0.490705,0.6048858 0.5625,1.0800781 3.619107,0.6970119 4.270981,6.2143134 6.292969,6.4062504 3.483417,0.330662 4.186173,-1.3761862 4.818359,-3.5156254 1.025792,1.0144986 1.270802,2.148359 1.314454,3.1484374 0.05232,-1.1721644 0.07845,-2.7708711 -1.314454,-4.1484374 -0.632186,2.1394392 -1.334942,3.8462874 -4.818359,3.515625 C 29.641952,9.7925514 29.036953,3.702406 24.910156,3.5078125 Z m 0.570313,2.1230469 C 25.1936,8.2229069 22.995828,11.804041 21.390625,9.6816406 19.462365,7.1320966 14.59752,5.9572775 13.667969,7.7871094 c 0,0 0.219968,0.2928466 0.404297,0.5429687 1.487479,-1.1138435 5.585007,0.057772 7.318359,2.3496099 1.828221,2.417274 4.426039,-2.5580825 4.089844,-5.0488286 z m 21.388672,4.2988281 c -2.153094,-0.2180483 -4.917145,4.3378485 -8.521485,2.3242185 -0.295155,-0.04176 -0.410757,-0.253735 -0.451172,-0.576172 -0.03962,0.86897 -0.08358,1.498564 0.451172,1.574219 3.669806,2.050204 6.467014,-2.693358 8.636719,-2.291015 0.253592,-0.224184 0.510459,-0.434009 0.771484,-0.611329 C 47.472513,10.090593 47.176725,9.9608373 46.869141,9.9296875 Z M 6.8984375,12.054688 c -0.8111744,0.02494 -1.4281185,0.137418 -1.6894531,0.386718 0.8145396,-0.04444 1.7674966,0.204306 2.6914062,0.628906 2.4524414,0.08349 5.8089494,0.61391 7.1835934,0.654297 0.866715,0.02546 0.96852,-0.54718 0.738282,-1.304687 -0.120543,0.195448 -0.344236,0.316264 -0.738282,0.304687 -1.570041,-0.04613 -5.7520234,-0.744755 -8.1855465,-0.669921 z m 36.8300785,5.423828 c -0.213631,1.571693 0.427496,2.795814 2.539062,2.804687 1.782028,0.107822 2.57408,0.341112 4.007813,1.402344 0.540222,0.08021 1.131612,0.213731 1.808593,0.447265 -2.814444,-2.335351 -3.410749,-2.704055 -5.816406,-2.849609 -1.633418,-0.0069 -2.37848,-0.746281 -2.539062,-1.804687 z m -32.039063,0.292968 c -0.04326,0.151096 -0.105141,0.298851 -0.193359,0.441407 C 9.9778206,20.666325 5.7735797,18.485892 4,22.492188 c 0.2033507,-0.0022 0.3820876,0.01851 0.5761719,0.02539 1.9819014,-2.643001 5.5467881,-1.085789 6.9199221,-3.304687 0.275193,-0.444695 0.31734,-0.937751 0.193359,-1.441407 z m 35.0625,6.160157 c -0.350262,0.961805 0.345225,2.041513 1.753906,1.748047 4.442231,-0.925438 6.449619,1.475355 6.964844,2.921874 0.663885,-0.16109 -0.851776,-5.195393 -6.964844,-3.921874 -0.909098,0.189389 -1.524666,-0.194086 -1.753906,-0.748047 z M 8.8691406,25.666016 C 8.7731642,26.140422 8.5529443,26.664982 8.1855469,27.240234 7.4485133,28.394245 3.941798,27.150467 4,28.166016 c 0.014955,0.260942 0.044165,0.518351 0.082031,0.773437 0.5066361,-0.570194 3.4362007,0.34563 4.1035157,-0.699219 C 8.83537,27.222773 9.0295634,26.36464 8.8691406,25.666016 Z m 35.9785154,3.660156 c -0.258172,0.147729 -0.368982,0.325938 -0.240234,0.548828 0.770539,1.33397 1.157095,2.537461 1.24414,3.628906 0.119263,-1.225516 -0.181565,-2.61193 -1.003906,-4.177734 z"
       id="path3" /><circle
       style="opacity:0.2"
       cx="29.999001"
       cy="31"
       r="18"
       id="circle3" /><circle
       style="fill:#ffffff"
       cx="29.999001"
       cy="30"
       r="18"
       id="circle4" /><circle
       style="opacity:0.2"
       cx="37.999001"
       cy="39"
       r="22"
       id="circle5" /><circle
       style="fill:#4f4f4f"
       cx="37.999001"
       cy="38"
       r="22"
       id="circle6" /><path
       style="opacity:0.1"
       d="M 38,16 A 21.999718,21.999718 0 0 0 16,38 21.999718,21.999718 0 0 0 16.021484,38.585938 21.999718,21.999718 0 0 1 38,17 21.999718,21.999718 0 0 1 43.048828,17.615234 17.999769,17.999769 0 0 0 41.679688,16.3125 21.999718,21.999718 0 0 0 38,16 Z"
       id="path6-6" /></g></svg>

<svg xmlns="http://www.w3.org/2000/svg" width="64" height="64" version="1.1">
 <path style="opacity:0.2" d="M 4.000432,23.491846 C 5.7740117,19.485551 9.9773709,21.665851 11.495644,19.212417 12.932691,16.890241 8.1574756,13.2797 5.2092227,13.44054 c 1.0453384,-0.997203 7.7809593,0.222273 9.8743483,0.283778 2.540916,0.07465 -1.414803,-4.9379139 -1.414803,-4.9379139 0.929551,-1.8298319 5.793533,-0.6551406 7.721793,1.8944029 2.19231,2.898674 5.506135,-4.8479175 3.519583,-6.1722855 4.126797,0.1945935 4.731971,6.2837555 6.855644,6.4853445 3.483417,0.330663 4.185226,-1.375493 4.817412,-3.5149321 2.457037,2.4299881 0.506926,5.5959621 1.765376,5.7740031 4.119245,2.301291 7.140136,-3.976346 9.406905,-1.904217 -3.371605,2.290396 -6.419424,8.913539 -1.488579,8.934259 2.405657,0.145558 3.003028,0.513586 5.817472,2.848938 -6.40532,-2.209606 -6.517917,3.160233 -3.578852,2.547947 6.129317,-1.276904 7.638872,3.789788 6.96161,3.92524 -1.812636,-0.906319 -11.762491,-1.291148 -10.860436,0.2705 4.635282,8.02467 -4.349877,11.397213 -11.876016,13.292792 L 17.066722,43.277435 C 14.201381,41.551165 4.421238,36.508867 4.000432,29.166357 3.94223,28.150808 7.449032,29.394697 8.1860656,28.240685 10.187632,25.106731 7.9214748,23.448677 4.000432,23.491846 Z"/>
 <path style="fill:#ff3c3c" d="m 4.000432,22.491872 c 1.7735797,-4.006295 5.9769389,-1.825995 7.495212,-4.279429 1.437047,-2.322176 -3.3381684,-5.932717 -6.2864213,-5.771878 1.0453384,-0.997202 7.7809593,0.222274 9.8743483,0.283779 2.540916,0.07465 -1.414803,-4.9379143 -1.414803,-4.9379143 0.929551,-1.8298319 5.793533,-0.6551406 7.721793,1.8944034 2.19231,2.8986729 5.506135,-4.847918 3.519583,-6.172286 4.126797,0.1945935 4.731971,6.2837556 6.855644,6.4853448 3.483417,0.3306621 4.185226,-1.3754932 4.817412,-3.5149324 2.457037,2.4299881 0.506926,5.5959625 1.765376,5.7740025 4.119245,2.301291 7.140136,-3.9763455 9.406905,-1.904217 -3.371605,2.290396 -6.419424,8.91354 -1.488579,8.93426 2.405657,0.145554 3.003028,0.513585 5.817472,2.848937 -6.40532,-2.209605 -6.517917,3.160234 -3.578852,2.547948 6.129317,-1.276904 7.638872,3.789787 6.96161,3.925239 C 53.654496,27.698811 43.704641,27.313982 44.606696,28.87563 49.241978,36.900299 40.256819,40.272842 32.73068,42.168422 L 17.066722,42.27746 C 14.201381,40.551191 4.421238,35.508893 4.000432,28.166383 3.94223,27.150834 7.449032,28.394722 8.1860656,27.240711 10.187632,24.106757 7.9214748,22.448702 4.000432,22.491872 Z"/>
 <path style="opacity:0.2;fill:#ffffff" d="M 24.910156 3.5078125 C 25.230114 3.7211176 25.400861 4.1126983 25.472656 4.5878906 C 29.091763 5.2849025 29.743637 10.802204 31.765625 10.994141 C 35.249042 11.324803 35.951798 9.6179548 36.583984 7.4785156 C 37.609776 8.4930142 37.854786 9.6268746 37.898438 10.626953 C 37.950754 9.4547886 37.976885 7.8560819 36.583984 6.4785156 C 35.951798 8.6179548 35.249042 10.324803 31.765625 9.9941406 C 29.641952 9.7925514 29.036953 3.702406 24.910156 3.5078125 z M 25.480469 5.6308594 C 25.1936 8.2229069 22.995828 11.804041 21.390625 9.6816406 C 19.462365 7.1320966 14.59752 5.9572775 13.667969 7.7871094 C 13.667969 7.7871094 13.887937 8.079956 14.072266 8.3300781 C 15.559745 7.2162346 19.657273 8.3878505 21.390625 10.679688 C 23.218846 13.096962 25.816664 8.1216055 25.480469 5.6308594 z M 46.869141 9.9296875 C 44.716047 9.7116392 41.951996 14.267536 38.347656 12.253906 C 38.052501 12.212149 37.936899 12.000171 37.896484 11.677734 C 37.856862 12.546704 37.8129 13.176298 38.347656 13.251953 C 42.017462 15.302157 44.81467 10.558595 46.984375 10.960938 C 47.237967 10.736754 47.494834 10.526929 47.755859 10.349609 C 47.472513 10.090593 47.176725 9.9608373 46.869141 9.9296875 z M 6.8984375 12.054688 C 6.0872631 12.079632 5.470319 12.192106 5.2089844 12.441406 C 6.023524 12.39697 6.976481 12.645712 7.9003906 13.070312 C 10.352832 13.153797 13.70934 13.684222 15.083984 13.724609 C 15.950699 13.750073 16.052504 13.177429 15.822266 12.419922 C 15.701723 12.61537 15.47803 12.736186 15.083984 12.724609 C 13.513943 12.678481 9.3319606 11.979854 6.8984375 12.054688 z M 43.728516 17.478516 C 43.514885 19.050209 44.156012 20.27433 46.267578 20.283203 C 48.049606 20.391025 48.841658 20.624315 50.275391 21.685547 C 50.815613 21.76576 51.407003 21.899278 52.083984 22.132812 C 49.26954 19.797461 48.673235 19.428757 46.267578 19.283203 C 44.63416 19.276339 43.889098 18.536922 43.728516 17.478516 z M 11.689453 17.771484 C 11.646198 17.92258 11.584312 18.070335 11.496094 18.212891 C 9.9778206 20.666325 5.7735797 18.485892 4 22.492188 C 4.2033507 22.489949 4.3820876 22.510697 4.5761719 22.517578 C 6.5580733 19.874577 10.12296 21.431789 11.496094 19.212891 C 11.771287 18.768196 11.813434 18.27514 11.689453 17.771484 z M 46.751953 23.931641 C 46.401691 24.893446 47.097178 25.973154 48.505859 25.679688 C 52.94809 24.75425 54.955478 27.155043 55.470703 28.601562 C 56.134588 28.440472 54.618927 23.406169 48.505859 24.679688 C 47.596761 24.869077 46.981193 24.485602 46.751953 23.931641 z M 8.8691406 25.666016 C 8.7731642 26.140422 8.5529443 26.664982 8.1855469 27.240234 C 7.4485133 28.394245 3.941798 27.150467 4 28.166016 C 4.0149548 28.426958 4.0441654 28.684367 4.0820312 28.939453 C 4.5886673 28.369259 7.5182319 29.285083 8.1855469 28.240234 C 8.8353702 27.222773 9.0295636 26.36464 8.8691406 25.666016 z M 44.847656 29.326172 C 44.589484 29.473901 44.478674 29.65211 44.607422 29.875 C 45.377961 31.20897 45.764517 32.412461 45.851562 33.503906 C 45.970825 32.27839 45.669997 30.891976 44.847656 29.326172 z"/>
 <circle style="opacity:0.2" cx="29.999" cy="31" r="18"/>
 <circle style="fill:#ffffff" cx="29.999" cy="30" r="18"/>
 <circle style="opacity:0.2" cx="37.999" cy="39" r="22"/>
 <circle style="fill:#4f4f4f" cx="37.999" cy="38" r="22"/>
 <path style="opacity:0.1" d="M 38 16 A 21.999718 21.999718 0 0 0 16 38 A 21.999718 21.999718 0 0 0 16.021484 38.585938 A 21.999718 21.999718 0 0 1 38 17 A 21.999718 21.999718 0 0 1 43.048828 17.615234 A 17.999769 17.999769 0 0 0 41.679688 16.3125 A 21.999718 21.999718 0 0 0 38 16 z"/>
</svg>
